src/assets/skills/creativity.svg

<svg height="512pt" viewBox="0 0 512 512" width="512pt" xmlns="http://www.w3.org/2000/svg" xmlns:xlink="http://www.w3.org/1999/xlink"><clipPath id="a"><path d="m0 0h512v512h-512z"/></clipPath><g clip-path="url(#a)"><circle cx="256" cy="256" fill="#84dbff" r="256"/><path d="m364.585 293.107c-2.535-.101-5.273-.405-8.111-.912-43.901-8.111-75.837-51.099-69.653-95.405.913-6.285.913-12.876-.101-19.668-4.055-27.882-25.752-51.302-53.228-57.385-23.319-5.171-44.812 1.926-60.426 15.411-.71.608-1.419.912-2.129 1.521-.406.405-.811.811-1.217 1.115-.507.507-1.013 1.115-1.52 1.723-62.556 63.468-68.233 164.651-12.065 222.442 58.702 60.426 160.494 55.661 226.294-10.139.608-.608 1.115-1.115 1.723-1.724 20.886-21.494 8.821-55.965-19.567-56.979z" fill="#fff"/><circle cx="214.026139" cy="187.969901" fill="#ffd05b" r="20.581386"/><circle cx="188.476832" cy="251.032079" fill="#84dbff" r="20.581386"/><circle cx="210.883168" cy="319.569109" fill="#4cdbc4" r="20.581386"/><circle cx="284.590891" cy="347.146139" fill="#ff7058" r="20.581386"/><path d="m333.053 181.684c-3.548 24.231-6.792 70.666-7.908 102.907-2.94 82.224 4.765 149.342 17.337 149.747 12.572.406 25.144-65.901 28.084-148.125 1.116-32.139 1.318-78.777-.507-103.211z" fill="#f9b54c"/><path d="m371.276 207.842c-.304-8.72-.71-17.033-1.217-24.84l-37.006-1.318c-1.115 7.705-2.129 16.019-3.041 24.637z" fill="#edf2f2"/><path d="m332.749 183.408 37.513 1.318c8.415-7.604 14.194-20.176 14.701-34.675.913-23.927-21.392-89.422-29.706-68.03-18.452 47.348-33.66 41.873-34.573 65.8-.608 14.397 4.259 27.476 12.065 35.587z" fill="#324a5e"/></g></svg>

<?xml version="1.0" encoding="UTF-8" standalone="no"?><!-- Generator: Gravit.io --><svg xmlns="http://www.w3.org/2000/svg" xmlns:xlink="http://www.w3.org/1999/xlink" style="isolation:isolate" viewBox="0 0 512 512" width="512pt" height="512pt"><defs><clipPath id="_clipPath_cLlIre73yeFhbMyq4ddk6mCH7g8D8b5X"><rect width="512" height="512"/></clipPath></defs><g clip-path="url(#_clipPath_cLlIre73yeFhbMyq4ddk6mCH7g8D8b5X)"><circle vector-effect="non-scaling-stroke" cx="256" cy="256" r="256" fill="rgb(132,219,255)"/><path d=" M 364.585 293.107 C 362.05 293.006 359.312 292.702 356.474 292.195 C 312.573 284.084 280.637 241.096 286.821 196.79 C 287.734 190.505 287.734 183.914 286.72 177.122 C 282.665 149.24 260.968 125.82 233.492 119.737 C 210.173 114.566 188.68 121.663 173.066 135.148 C 172.356 135.756 171.647 136.06 170.937 136.669 C 170.531 137.074 170.126 137.48 169.72 137.784 C 169.213 138.291 168.707 138.899 168.2 139.507 C 105.644 202.975 99.967 304.158 156.135 361.949 C 214.837 422.375 316.629 417.61 382.429 351.81 C 383.037 351.202 383.544 350.695 384.152 350.086 C 405.038 328.592 392.973 294.121 364.585 293.107 Z " fill="rgb(255,255,255)"/><circle vector-effect="non-scaling-stroke" cx="214.02613861386138" cy="187.969900990099" r="20.58138613861385" fill="rgb(255,208,91)"/><circle vector-effect="non-scaling-stroke" cx="188.4768316831683" cy="251.0320792079208" r="20.58138613861385" fill="rgb(132,219,255)"/><circle vector-effect="non-scaling-stroke" cx="210.8831683168317" cy="319.5691089108911" r="20.58138613861385" fill="rgb(76,219,196)"/><circle vector-effect="non-scaling-stroke" cx="284.5908910891089" cy="347.14613861386135" r="20.58138613861388" fill="rgb(255,112,88)"/><path d=" M 333.053 181.684 C 329.505 205.915 326.261 252.35 325.145 284.591 C 322.205 366.815 329.91 433.933 342.482 434.338 C 355.054 434.744 367.626 368.437 370.566 286.213 C 371.682 254.074 371.884 207.436 370.059 183.002 L 333.053 181.684 Z " fill="rgb(249,181,76)"/><path d=" M 371.276 207.842 C 370.972 199.122 370.566 190.809 370.059 183.002 L 333.053 181.684 C 331.938 189.389 330.924 197.703 330.012 206.321 L 371.276 207.842 Z " fill="rgb(237,242,242)"/><path d=" M 332.749 183.408 L 370.262 184.726 C 378.677 177.122 384.456 164.55 384.963 150.051 C 385.876 126.124 363.571 60.629 355.257 82.021 C 336.805 129.369 321.597 123.894 320.684 147.821 C 320.076 162.218 324.943 175.297 332.749 183.408 Z " fill="rgb(50,74,94)"/></g></svg>
